app/assets/images/pricing-x.svg

<?xml version="1.0" encoding="UTF-8" standalone="no"?>
<svg width="16px" height="16px" viewBox="0 0 16 16" version="1.1" xmlns="http://www.w3.org/2000/svg" xmlns:xlink="http://www.w3.org/1999/xlink" xmlns:sketch="http://www.bohemiancoding.com/sketch/ns">
    <!-- Generator: Sketch 3.0.3 (7892) - http://www.bohemiancoding.com/sketch -->
    <title>Rectangle 10</title>
    <desc>Created with Sketch.</desc>
    <defs></defs>
    <g id="Page-1" stroke="none" stroke-width="1" fill="none" fill-rule="evenodd" sketch:type="MSPage">
        <path d="M8,6.74292128 L14.284957,0.457964271 C14.6260612,0.116860048 15.1953396,0.110394964 15.5424723,0.457527667 C15.8920252,0.807080517 15.8894096,1.36766916 15.5420357,1.71504299 L9.25707872,8 L15.5420357,14.284957 C15.88314,14.6260612 15.889605,15.1953396 15.5424723,15.5424723 C15.1929195,15.8920252 14.6323308,15.8894096 14.284957,15.5420357 L8,9.25707872 L1.71504299,15.5420357 C1.37393877,15.88314 0.804660371,15.889605 0.457527667,15.5424723 C0.107974818,15.1929195 0.110590438,14.6323308 0.457964271,14.284957 L6.74292128,8 L0.457964271,1.71504299 C0.116860048,1.37393877 0.110394964,0.804660371 0.457527667,0.457527667 C0.807080517,0.107974818 1.36766916,0.110590438 1.71504299,0.457964271 L8,6.74292128 Z" id="Rectangle-10" fill="#B2B2B2" sketch:type="MSShapeGroup"></path>
    </g>
</svg>

<svg width="16" height="16" viewBox="0 0 16 16" xmlns="http://www.w3.org/2000/svg">
    <title>
        Rectangle 10
    </title>
    <desc>
        Created with Sketch.
    </desc>
    <g fill="none" fill-rule="evenodd">
        <path d="M8 6.743L14.285.458c.34-.34.91-.348 1.257 0 .35.35.347.91 0 1.257L9.257 8l6.285 6.285c.34.34.348.91 0 1.257-.35.35-.91.347-1.257 0L8 9.257l-6.285 6.285c-.34.34-.91.348-1.257 0-.35-.35-.347-.91 0-1.257L6.743 8 .458 1.715c-.34-.34-.348-.91 0-1.257.35-.35.91-.347 1.257 0L8 6.743z" fill="#B2B2B2"/>
    </g>
</svg>
